X:1
T:Title
%%score ( 1 2 ) { 3 | 4 }
L:1/8
Q:1/4=100
M:6/8
K:Eb
V:1 treble nm="Grand Piano, Soprano"
V:2 treble 
V:3 bass nm="Choir Pad, I Long to Be There"
V:4 bass 
V:1
 [EB][EB][EB] [EB] [EB]2 | z e2- e z z | [GB][GB][GB] [GB][EG][DF] | E [DF]2- [DF]2- [DF]/ z/ | %4
w: By~S.~J.~Smucker * * * *||||
 [DF][EG][EG] [EG][FA][EG] | z B2- B z z | [Ge][Fd][Ec] [DB][Ec][Fd] | %7
w: |||
 [Fc] [DB]2- [DB]2- [DB]/ z/ | [GB] [GB]2- [GB] [EG]2 | [GB] [Ae]2- [Ae] [Bd]2 | %10
w: |||
 [Ac] [GB]2 [Ac] [GB]2 | [EG] [DF]2- [DF]2- [DF]/ z/ | z G2- G z z | z A2- A z z | z B2 z3 | %15
w: |||||
 [DF] E2- E3- | E3 z3 |] %17
w: ||
V:2
 x6 | [EB] G2- G- [GB]2 | x6 | x6 | x6 | [FA] G2- G-[Ge-]>e | x6 | x6 | x6 | x6 | x6 | x6 | %12
 [DF] E2- E- [EB]2 | [EG] E2- E-[Ec-]>c | [Ee] E2- [EG-]/G/ [EG]2 | x6 | x6 |] %17
V:3
 G,G,G, G, G,2 | G, B,2- B,[K:treble] E2 | EEE E[K:bass]B,A, | G, B,2- B,2- B,/ z/ | %4
 B,B,B, B,B,B, | B, B,2- B, C2 | CB,=A, B,A,A, | =A, B,2- B,2- B,/ z/ | E E2- E B,2 | E C2- C E2 | %10
 E E2- E E2 | B, B,2- B, B,2 | B, B,2- B, G,2 | B, A,2- A,2- A,/ z/ | A, G,2- G, B,2 | %15
 A, G,2- G,3- | G,3 z3 |] %17
V:4
 E,E,E, E, E,2 | E, E,2- E,3 | E,E,E, E, E,2 | E, B,,2- B,,2- B,,/ z/ | B,,E,E, E,D,D, | %5
 B,, E,2- E, C,2 | C,F,F, F,F,F, | F, B,,2- B,,2- B,,/ z/ | E, E,2- E, E,2 | %9
 E, A,,2- A,,2- A,,/ z/ | A,, E,2- E, E,2 | E, B,,2- B,, B,,2 | B,, E,2- E, _D,2 | %13
 _D, C,2- C, A,,2 | A,, B,,2- B,, B,,2 | B,, E,2- E,3- | E,3 z3 |] %17

